X:24
T:Sailorâ€™s Rant,The. JBi.24
M:6/8
L:1/8
Q:3/8=110
S:James Biggins MS, Leeds, 1779.
R:.Cotillion
O:England
A:Yorkshire
Z:vmp.Nick Barber&Chris Partington..
K:G
g3 dBd|ege dBd|gfe dcB|ABG FED|!
g3dBd|ege fga|gfe Ad^c|d3D3:|!
|:d3BdB|c3aed|c3AcA|B3gdc|!
B3GBG|ABc def|gfe dBd|G3G,3:|

